X: 7845
T: Coming Of Spring, The
R: jig
M: 6/8
K: Edorian
A|:BEE ~B3|BdB BAG|~F3 DFA|dfe dBA|
BEE ~B3|Bef gfe|dBG FGA|1 AGE E2A:|2 AGE E2F||
|:GEF ~G2A|~B3 Bec|dAA BAG|F/G/AF DEF|
~G2E FGA|Bef gfe|dBG FGA|1 AGE E2F:|2 AGE E2f||
~g3 eee|Beg b2g|f2d dcd|AFA def|
~g3 eee|Beg b2g|~f2d f/g/af|ged e2f|
~g3 eee|Beg b2g|f2d dcd|AFA def|
~g2e fed|Bec dfe|dBG FGA|AGE E2A||

